dist/assets/images/producersColor/Atkins_logo 5.svg

<svg width="158" height="34" viewBox="0 0 158 34" fill="none" xmlns="http://www.w3.org/2000/svg">
<g clip-path="url(#clip0_351_1224)">
<path d="M16.7335 8.00071L26.1558 33.1833H33.3627L20.9178 1.44141H12.8748L0.726562 33.1833H7.49421L16.7335 8.00071Z" fill="#2C4255"/>
<path d="M39.7669 6.45989H30.9303L28.9961 1.43945H55.5889V6.45989H46.2398V33.1833H39.7669V6.45989Z" fill="#2C4255"/>
<path d="M59.5273 33.1833V1.44141H66.0041V15.0538L77.7921 1.44141H85.5769L72.3267 16.3113L86.1221 33.1833H77.9347L66.0041 18.3842V33.1833H59.5273Z" fill="#2C4255"/>
<path d="M96.2366 1.44141H89.7617V33.1852H96.2366V1.44141Z" fill="#2C4255"/>
<path d="M122.392 33.1852L109.549 9.93194V33.1852H103.613V1.44141H111.479L124.25 24.6564V1.44141H130.185V33.1852H122.392Z" fill="#2C4255"/>
<path d="M155.284 7.57386C153.123 6.43071 150.709 5.8388 148.26 5.85126C146.01 5.85126 142.801 6.8542 142.801 9.89938C142.801 12.9446 146.559 13.7619 150.085 15.1648C154.336 16.8472 157.54 19.0311 157.54 24.1913C157.54 30.8214 152.084 34.2245 145.018 34.2245C141.412 34.2245 138.252 33.3996 135.883 32.2148L136.682 26.446C139.144 27.9993 141.992 28.8435 144.908 28.8844C148.253 28.8844 150.722 27.5906 150.722 24.7272C150.722 21.8638 147.237 20.8207 143.743 19.4254C140.029 17.9554 136.064 16.0893 136.064 10.5731C136.064 3.98128 142.036 0.723633 147.892 0.723633C151.271 0.723633 153.785 1.40311 155.97 2.44624L155.284 7.57386Z" fill="#2C4255"/>
</g>
<defs>
<clipPath id="clip0_351_1224">
<rect width="158" height="34" fill="white"/>
</clipPath>
</defs>
</svg>

<svg width="158" height="34" fill="none" xmlns="http://www.w3.org/2000/svg"><g clip-path="url(#clip0_351_1224)" fill="#2C4255"><path d="M16.733 8l9.423 25.183h7.207L20.918 1.441h-8.043L.727 33.183h6.767l9.24-25.182zm23.034-1.54H30.93l-1.934-5.02H55.59v5.02h-9.35v26.723h-6.472V6.46zm19.76 26.723V1.441h6.477v13.613L77.792 1.44h7.785l-13.25 14.87 13.795 16.872h-8.187l-11.93-14.799v14.8h-6.478zm36.71-31.742h-6.475v31.744h6.475V1.441zm26.155 31.744L109.549 9.932v23.253h-5.936V1.441h7.866l12.771 23.215V1.441h5.935v31.744h-7.793zm32.892-25.611a14.863 14.863 0 00-7.024-1.723c-2.25 0-5.459 1.003-5.459 4.048 0 3.046 3.758 3.863 7.284 5.266 4.251 1.682 7.455 3.866 7.455 9.026 0 6.63-5.456 10.034-12.522 10.034-3.606 0-6.766-.825-9.135-2.01l.799-5.769a15.835 15.835 0 008.226 2.438c3.345 0 5.814-1.293 5.814-4.157 0-2.863-3.485-3.906-6.979-5.302-3.714-1.47-7.679-3.336-7.679-8.852 0-6.592 5.972-9.85 11.828-9.85 3.379 0 5.893.68 8.078 1.723l-.686 5.128z"/></g><defs><clipPath id="clip0_351_1224"><path fill="#fff" d="M0 0h158v34H0z"/></clipPath></defs></svg>
